X: 40503
T: Tommy Coen's
R: reel
M: 4/4
K: Adorian
A2 eA AAeA|G2 dG AGGE|A2 eA AAeA|GABd eBdB|
A2 eA AAeA|G2 dG AGGA|GEDE GABd|1 eBdB A3 G:|2 eBdB A3 B||
|:eaaa eaaf|g2 bg dgb^g|eaaa eaaf|gedB GABd|eaaa eaaf|
g2 bg dgb^g|edef gbaf|1 gedB A2 Bd:|2 gedB A3 G||

